public/assets/vectors/Instagram.svg

<svg width="25" height="24" viewBox="0 0 25 24" fill="none" xmlns="http://www.w3.org/2000/svg">
<g clip-path="url(#clip0_81_405)">
<path d="M12.75 2.16276C15.956 2.16276 16.3324 2.17705 17.5996 2.23422C18.7715 2.28662 19.405 2.48194 19.829 2.64867C20.3911 2.8678 20.7913 3.12505 21.2105 3.54426C21.6297 3.96348 21.8917 4.36364 22.1061 4.92576C22.2681 5.34974 22.4682 5.98333 22.5206 7.15522C22.5777 8.42239 22.592 8.79873 22.592 12.0048C22.592 15.2108 22.5777 15.5871 22.5206 16.8543C22.4682 18.0262 22.2728 18.6598 22.1061 19.0838C21.887 19.6459 21.6297 20.046 21.2105 20.4653C20.7913 20.8845 20.3911 21.1465 19.829 21.3609C19.405 21.5228 18.7715 21.7229 17.5996 21.7753C16.3324 21.8325 15.956 21.8468 12.75 21.8468C9.54397 21.8468 9.16763 21.8325 7.90046 21.7753C6.72857 21.7229 6.09498 21.5276 5.671 21.3609C5.10888 21.1417 4.70872 20.8845 4.2895 20.4653C3.87029 20.046 3.60828 19.6459 3.39391 19.0838C3.23194 18.6598 3.03186 18.0262 2.97946 16.8543C2.92229 15.5871 2.908 15.2108 2.908 12.0048C2.908 8.79873 2.92229 8.42239 2.97946 7.15522C3.03186 5.98333 3.22718 5.34974 3.39391 4.92576C3.61304 4.36364 3.87029 3.96348 4.2895 3.54426C4.70872 3.12505 5.10888 2.86304 5.671 2.64867C6.09498 2.4867 6.72857 2.28662 7.90046 2.23422C9.16763 2.17229 9.54874 2.16276 12.75 2.16276ZM12.75 0C9.49157 0 9.08188 0.0142914 7.80042 0.0714569C6.52372 0.128622 5.65195 0.333466 4.88974 0.628821C4.09895 0.933704 3.43202 1.34815 2.76509 2.01509C2.09815 2.68202 1.68847 3.35371 1.37882 4.13974C1.08347 4.90195 0.878623 5.77372 0.821457 7.05518C0.764291 8.33188 0.75 8.74156 0.75 12C0.75 15.2584 0.764291 15.6681 0.821457 16.9496C0.878623 18.2263 1.08347 19.0981 1.37882 19.865C1.6837 20.6558 2.09815 21.3227 2.76509 21.9897C3.43202 22.6566 4.10371 23.0663 4.88974 23.3759C5.65195 23.6713 6.52372 23.8761 7.80519 23.9333C9.08665 23.9905 9.49157 24.0048 12.7548 24.0048C16.018 24.0048 16.4229 23.9905 17.7044 23.9333C18.9811 23.8761 19.8528 23.6713 20.6198 23.3759C21.4106 23.0711 22.0775 22.6566 22.7445 21.9897C23.4114 21.3227 23.8211 20.6511 24.1307 19.865C24.4261 19.1028 24.6309 18.231 24.6881 16.9496C24.7453 15.6681 24.7595 15.2632 24.7595 12C24.7595 8.7368 24.7453 8.33188 24.6881 7.05042C24.6309 5.77372 24.4261 4.90195 24.1307 4.13497C23.8258 3.34418 23.4114 2.67725 22.7445 2.01032C22.0775 1.34339 21.4058 0.933704 20.6198 0.624057C19.8576 0.328702 18.9858 0.123859 17.7044 0.0666931C16.4181 0.0142914 16.0084 0 12.75 0Z" fill="white"/>
<path d="M12.75 5.84033C9.34863 5.84033 6.58563 8.59857 6.58563 12.0047C6.58563 15.4108 9.34387 18.169 12.75 18.169C16.1561 18.169 18.9143 15.4108 18.9143 12.0047C18.9143 8.59857 16.1561 5.84033 12.75 5.84033ZM12.75 16.0015C10.5396 16.0015 8.7484 14.2103 8.7484 11.9999C8.7484 9.78952 10.5396 7.99833 12.75 7.99833C14.9604 7.99833 16.7516 9.78952 16.7516 11.9999C16.7516 14.2103 14.9604 16.0015 12.75 16.0015Z" fill="white"/>
<path d="M19.1573 7.03139C19.9518 7.03139 20.596 6.38727 20.596 5.59272C20.596 4.79817 19.9518 4.15405 19.1573 4.15405C18.3627 4.15405 17.7186 4.79817 17.7186 5.59272C17.7186 6.38727 18.3627 7.03139 19.1573 7.03139Z" fill="white"/>
</g>
<defs>
<clipPath id="clip0_81_405">
<rect width="24" height="24" fill="white" transform="translate(0.75)"/>
</clipPath>
</defs>
</svg>

<svg width="25" height="24" fill="none" xmlns="http://www.w3.org/2000/svg"><g clip-path="url(#a)" fill="#fff"><path d="M12.75 2.163c3.206 0 3.582.014 4.85.071 1.171.053 1.805.248 2.229.415.562.219.962.476 1.381.895.42.42.682.82.896 1.382.162.424.362 1.057.415 2.23.057 1.266.071 1.643.071 4.849 0 3.206-.014 3.582-.071 4.85-.053 1.171-.248 1.805-.415 2.229-.219.562-.476.962-.896 1.381-.419.42-.819.681-1.381.896-.424.162-1.058.362-2.23.414-1.267.058-1.643.072-4.849.072-3.206 0-3.582-.015-4.85-.072-1.171-.052-1.805-.247-2.229-.414a3.726 3.726 0 0 1-1.381-.896c-.42-.419-.682-.82-.896-1.381-.162-.424-.362-1.058-.415-2.23-.057-1.267-.071-1.643-.071-4.85 0-3.205.014-3.582.071-4.849.053-1.172.248-1.805.415-2.23.219-.561.476-.962.896-1.38.419-.42.819-.682 1.381-.896.424-.162 1.058-.362 2.23-.415 1.267-.062 1.648-.071 4.849-.071Zm0-2.163C9.492 0 9.082.014 7.8.071 6.524.13 5.652.333 4.89.63a5.85 5.85 0 0 0-2.125 1.386A5.952 5.952 0 0 0 1.38 4.14c-.296.762-.5 1.634-.558 2.915C.764 8.332.75 8.742.75 12s.014 3.668.071 4.95c.058 1.276.262 2.148.558 2.915a5.85 5.85 0 0 0 1.386 2.125 5.952 5.952 0 0 0 2.125 1.386c.762.295 1.634.5 2.915.557 1.282.058 1.687.072 4.95.072s3.668-.014 4.95-.072c1.276-.057 2.148-.262 2.915-.557a5.849 5.849 0 0 0 2.124-1.386 5.952 5.952 0 0 0 1.387-2.125c.295-.762.5-1.634.557-2.915.057-1.282.072-1.687.072-4.95s-.015-3.668-.072-4.95c-.057-1.276-.262-2.148-.557-2.915a5.85 5.85 0 0 0-1.387-2.125A5.953 5.953 0 0 0 20.62.624c-.762-.295-1.634-.5-2.916-.557C16.418.014 16.008 0 12.75 0Z"/><path d="M12.75 5.84a6.165 6.165 0 1 0 .002 12.331 6.165 6.165 0 0 0-.002-12.33Zm0 10.162a4.001 4.001 0 1 1-.001-8.003 4.001 4.001 0 0 1 .001 8.003ZM19.157 7.031a1.439 1.439 0 1 0 0-2.877 1.439 1.439 0 0 0 0 2.877Z"/></g><defs><clipPath id="a"><path fill="#fff" transform="translate(.75)" d="M0 0h24v24H0z"/></clipPath></defs></svg>
